!!!SOCIAL_FUNCTION:	songs with the corn dance
!!!PDT:	1956
!!!OTL: No_8_Corn_Dance_Song_(d).krn
!!!LANG: Non-Tone
!!!LING_GROUP: Muskogean
!!!REG: Florida
**kern
*staff1
=1-
=
*clefF4
*k[b-e-a-d-g-]
*M3/4
2A-\
4A-\
=2||
*M2/4
4A-\
4F\
=3
4F\
4r
=4||
*M3/4
2A-\
8A-\L
8G-\J
=5||
*M2/4
4F\
4D-\
=6
2D-\
=7||
*M3/4
8F\L
8En\J
4F\
4F\
=8||
*M2/4
4F\
4D-\
=9
4D-\
4r
=10
2D-\
=11
4D-\
4F\
=12
4D-\
8D-\
8r
=13||
*M5/8
8F\L
8D-\
8F\
8D-\
8A-\J
=14||
*M3/4
4.A-\
8E-\
8.F\L
16D-\Jk
=15||
*M2/4
4.F\
16G-\LL
16F\JJ
=16
8.D-\L
16D-\Jk
8D-\L
8D-\J
=17
4.D-\
16r
16AA-/
=18||
*M3/4
8D-\L
8D-\J
4D-\
4r
=19||
*M2/4
4A-\
8.F\L
16F\Jk
=20
8F\L
8En\J
8F\L
8G-\J
=21
16F\LK
8D-\
16D-\Jk
8D-\L
8D-\J
=22||
*M3/4
4..D-\
16AA-/
8D-\L
8D-\J
=23
4.D-\
8AA-/
8D-\L
8D-\J
=24||
*M2/4
4D-\
4r
=25
8F\L
8En\J
4F\
=26||
*M3/4
4F\
4F\
4D-\
=27||
*M2/4
4D-\
4r
=28
2D-\
=29
4D-\
4F\
=30
4D-\
8D-\
8r
=31
2A-\
=32||
*M3/4
4A-\
4A-\
4F\
=33||
*M2/4
4F\
4r
=34||
*M3/4
2A-\
8A-\L
8G-\J
=35||
*M2/4
4F\
4D-\
=36
4D-\
4r
=37||
*M3/4
8F\L
8En\J
4F\
4F\
=38||
*M2/4
4F\
4D-\
=39
4D-\
4r
=40
2D-\
=41
4D-\
4F\
=42
4D-\
8D-\
8r
=43||
*M5/8
8F\L
8D-\
8F\
8D-\
8A-\J
=44||
*M3/4
4.A-\
8A-\
8.F\L
16D-\Jk
=45||
*M2/4
4.F\
16G-\LL
16F\JJ
=46
8.D-\L
16D-\Jk
8D-\L
8D-\J
=47||
*M3/4
4.D-\
8AA-/
8D-\L
8D-\J
=48||
*M2/4
2D-\
=49
4A-\
8.F\L
16F\Jk
=50
8F\L
8En\J
8F\L
8G-\J
=51||
*M5/8
8F\L
8D-\
8D-\
8D-\
8D-\J
=52||
!!pagebreak:default
*M3/4
4D-\
8r
8AA-/
8D-\L
8D-\J
=53
4..D-\
16AA-/
8D-\L
8D-\J
=54||
*M2/4
4D-\
4r
=55||
*M3/4
8F\L
8En\J
4F\
4F\
=56||
*M2/4
4F\
4D-\
=57
4D-\
4r
=58
2D-\
=59
4D-\
4F\
=60
4D-\
8D-\
8r
==:|!
*-
